assets/img/braze_icons/italic-01.svg

<svg fill="none" height="24" viewBox="0 0 24 24" width="24" xmlns="http://www.w3.org/2000/svg"><path d="m15.0313 3h3.9687c.5523 0 1 .44772 1 1s-.4477 1-1 1h-3.3071l-5.25 14h3.5571c.5523 0 1 .4477 1 1s-.4477 1-1 1h-4.98983c-.00685.0001-.01372.0001-.02059 0h-3.98958c-.55228 0-1-.4477-1-1s.44772-1 1-1h3.30694l5.24996-14h-3.5569c-.55228 0-1-.44772-1-1s.44772-1 1-1h4.969c.0207-.00065.0415-.00065.0623 0z" fill="#801ed7"/></svg>

<svg width="24" height="24" viewBox="0 0 24 24" fill="none" xmlns="http://www.w3.org/2000/svg">
<path d="M15.0313 3H19C19.5523 3 20 3.44772 20 4C20 4.55228 19.5523 5 19 5H15.6929L10.4429 19H14C14.5523 19 15 19.4477 15 20C15 20.5523 14.5523 21 14 21H9.01017C9.00332 21.0001 8.99645 21.0001 8.98958 21H5C4.44772 21 4 20.5523 4 20C4 19.4477 4.44772 19 5 19H8.30694L13.5569 5H10C9.44772 5 9 4.55228 9 4C9 3.44772 9.44772 3 10 3H14.969C14.9897 2.99935 15.0105 2.99935 15.0313 3Z" fill="#801ED7"/>
</svg>
